X:1
T:Drink Helps Me Forget, But I Can't Remember What
M:4/4
R:Reel
S:Steve Mansfield <tradtunes:lesession.co.uk> tradtunes 2008-4-22
C:Steve Mansfield 22/04/2008
Z:Steve Mansfield 22/04/2008
K:G
D |: G2BG EFGA | Bcde fgaf | gfga gedB |1 AGAB AGED :|2 AGED G2 ||
Bd | eBBB gBBB | bBaB gBBB | bBaB gB fB | eB dB cAFD |
G2BG EFGA | Bcde fgaf | bBaB gB fB | eB cA G3 ||
